fs/home_checkmark_24_regular.svg

<svg viewBox="0 0 24 24" fill="none" xmlns="http://www.w3.org/2000/svg" height="1em" width="1em">
  <path d="M10.537 2.53373C11.3747 1.82546 12.6012 1.8246 13.4399 2.5317L20.2002 8.23095C20.7073 8.65846 21 9.28794 21 9.95121V19.7498C21 20.7163 20.2165 21.4998 19.25 21.4998H4.75C3.7835 21.4998 3 20.7163 3 19.7498V9.94993C3 9.28776 3.29168 8.65922 3.79734 8.23171L10.537 2.53373ZM12.4731 3.67853C12.1935 3.44284 11.7847 3.44312 11.5054 3.67921L4.76578 9.37719C4.59723 9.51969 4.5 9.72921 4.5 9.94993V19.7498C4.5 19.8878 4.61193 19.9998 4.75 19.9998H19.25C19.3881 19.9998 19.5 19.8878 19.5 19.7498V9.95121C19.5 9.73012 19.4024 9.52029 19.2334 9.37779L12.4731 3.67853ZM15.7837 10.7161C16.0766 11.009 16.0766 11.4838 15.7837 11.7767L11.2803 16.2802C11.1397 16.4208 10.9489 16.4998 10.75 16.4998C10.5511 16.4998 10.3603 16.4208 10.2197 16.2802L8.21967 14.2802C7.92678 13.9873 7.92678 13.5124 8.21967 13.2195C8.51256 12.9266 8.98744 12.9266 9.28033 13.2195L10.75 14.6892L14.723 10.7161C15.0159 10.4232 15.4908 10.4232 15.7837 10.7161Z" fill="#212121"/>
</svg>

<svg viewBox="0 0 24 24" fill="none" xmlns="http://www.w3.org/2000/svg" height="1em" width="1em">
  <path d="M10.537 2.534a2.25 2.25 0 0 1 2.903-.002L20.2 8.23c.507.427.8 1.057.8 1.72v9.799a1.75 1.75 0 0 1-1.75 1.75H4.75A1.75 1.75 0 0 1 3 19.75v-9.8c0-.662.292-1.29.797-1.718l6.74-5.698Zm1.936 1.145a.75.75 0 0 0-.968 0l-6.74 5.698a.75.75 0 0 0-.265.573v9.8c0 .138.112.25.25.25h14.5a.25.25 0 0 0 .25-.25v-9.8a.75.75 0 0 0-.267-.573l-6.76-5.7Zm3.31 7.037a.75.75 0 0 1 0 1.06L11.28 16.28a.75.75 0 0 1-1.06 0l-2-2a.75.75 0 0 1 1.06-1.06l1.47 1.47 3.973-3.974a.75.75 0 0 1 1.06 0Z" fill="#212121"/>
</svg>
